X: 14802
T: Gangs Of New York
R: waltz
M: 3/4
K: Dmajor
z2|:d2d2-|d2cBA2-|A2Bcd2-|ded2c2|B4e2|A4d2|c4B2|A4BA|
GFE2FG|AGF2GA|BABdce|d4e2|Bcd4-|ded2c2|B4e2|A4d2|
c4B2|A4BA|GFE2FG|AGF2GA|BABdce|dcdfeg|fed2=c2|
B2d2g2-|g2fefd|e4e2|f2edeA|B2c2de|f2gfed|c2A2d2|d4z2|
z4d2|c4B2|A4BA|G2F2E2|D4z2|z4g2|f4e2|d4ed|=c2B2A2|
G2B2e2|edcdef|g2agfe|d2:|

